build/img/exp-logo-4.svg

<svg width="101" height="51" viewBox="0 0 101 51" fill="none" xmlns="http://www.w3.org/2000/svg">
<g clip-path="url(#clip0_1116_212)">
<path d="M101 0.636719V50.6367C100.829 50.5475 100.64 50.4801 100.489 50.3651C96.1883 47.0764 91.5293 44.3706 86.6217 42.0766C74.6835 36.4965 62.1331 33.6552 48.8985 33.8601C44.1767 33.9335 39.5023 34.4093 34.8761 35.33C22.299 37.8342 10.7691 42.7177 0.383213 50.1893C0.282976 50.2613 0.170043 50.3155 0.000976562 50.414V0.665799H0.824924C33.998 0.665799 67.171 0.665799 100.343 0.664477C100.563 0.664477 100.781 0.646632 101 0.636719ZM82.0362 7.27624V8.14667C82.0362 11.9529 82.0362 15.7591 82.0362 19.5659C82.0362 23.6986 82.0362 27.8313 82.0362 31.964C82.0362 32.2832 81.9754 32.6011 82.401 32.767C83.7703 33.3003 85.1268 33.8674 86.4914 34.414C86.5789 34.449 86.6925 34.4186 86.879 34.4186V23.5955C88.6752 23.7521 89.7484 24.91 89.7624 26.7038C89.7845 29.5093 89.7624 32.3156 89.7811 35.1211C89.7825 35.369 89.8727 35.7563 90.0431 35.8409C91.4738 36.5527 92.9333 37.209 94.386 37.8778C94.4087 37.8884 94.4582 37.8434 94.5424 37.7998V37.1131C94.5424 33.7854 94.5117 30.4571 94.5537 27.13C94.5791 25.1136 94.225 23.2822 92.4668 21.9207C94.0305 20.9069 94.3994 19.4575 94.3413 17.7623C94.2698 15.6546 94.3259 13.543 94.3239 11.4334C94.3212 8.99924 92.6112 7.29739 90.136 7.27955C88.5068 7.26765 86.8769 7.27691 85.2478 7.27691C84.2167 7.27691 83.1856 7.27691 82.0368 7.27691L82.0362 7.27624ZM36.0889 28.6349C37.5891 28.4439 38.9784 28.2331 40.3757 28.1069C40.9056 28.0586 41.0286 27.8762 41.0253 27.3891C41.0052 24.8003 41.0152 22.2109 41.0179 19.6214C41.0179 19.4456 41.0426 19.2705 41.0687 18.9169C42.2087 21.1805 43.2625 23.2743 44.3845 25.5022C45.5052 23.2796 46.5617 21.1832 47.6182 19.0874C47.6596 19.1033 47.701 19.1185 47.7418 19.1343C47.7418 19.3723 47.7418 19.6095 47.7418 19.8475C47.7418 22.1759 47.7565 24.5036 47.7311 26.8313C47.7251 27.3746 47.9022 27.5563 48.4481 27.5339C49.657 27.4836 50.8685 27.4645 52.0787 27.4711C52.5365 27.4737 52.6407 27.2801 52.628 26.8822C52.608 26.2517 52.6233 25.6205 52.6233 24.9894C52.6233 19.3756 52.6233 13.7624 52.6233 8.14865C52.6233 7.56749 52.3204 7.27668 51.7145 7.27624C50.503 7.27624 49.2908 7.30334 48.0806 7.26369C47.564 7.2465 47.3509 7.44676 47.1898 7.89948C46.5343 9.74211 45.8466 11.5742 45.165 13.4082C44.9285 14.046 44.6766 14.6778 44.3905 15.418C44.2776 15.1292 44.2115 14.9693 44.152 14.8067C43.33 12.5391 42.484 10.2794 41.7035 7.9973C41.5031 7.41041 41.2211 7.23857 40.619 7.2617C39.3874 7.30929 38.1511 7.31326 36.9196 7.26104C36.2567 7.23262 36.0689 7.41239 36.0715 8.08586C36.0989 14.6567 36.0883 21.2274 36.0883 27.7982V28.6343L36.0889 28.6349ZM18.5608 24.1176C17.1168 24.1176 15.7542 24.1434 14.3937 24.1051C13.839 24.0892 13.7381 24.304 13.7441 24.7884C13.7662 26.6377 13.7622 28.4869 13.7481 30.3361C13.7414 31.2746 13.1795 31.8225 12.2807 31.8179C11.5149 31.8146 10.9355 31.2198 10.9341 30.348C10.9241 24.5175 10.9235 18.6862 10.9341 12.8557C10.9362 11.8517 11.5135 11.2351 12.3595 11.2404C13.2122 11.2457 13.7488 11.8676 13.7515 12.8728C13.7561 14.5046 13.7702 16.1364 13.7428 17.7682C13.7341 18.2659 13.9098 18.406 14.391 18.3954C15.5798 18.3697 16.7699 18.3683 17.9587 18.3954C18.4452 18.4067 18.611 18.258 18.6036 17.7649C18.5775 16.0029 18.5862 14.2403 18.5949 12.4783C18.6029 10.7328 17.9968 9.24576 16.6958 8.05744C15.2457 6.73363 13.4848 6.47191 11.595 6.60145C8.49906 6.81361 6.18292 9.19553 6.17757 12.2595C6.16621 18.373 6.17557 24.4871 6.17356 30.6005C6.17356 32.5019 6.98415 34.0168 8.50106 35.1317C10.5599 36.6452 12.7899 36.6472 15.0546 35.632C17.3126 34.6202 18.508 32.8628 18.5542 30.4069C18.5929 28.3448 18.5622 26.2814 18.5622 24.1176H18.5608ZM33.4527 28.978C33.4707 28.8094 33.4915 28.7037 33.4915 28.5973C33.4901 23.0958 33.4961 17.5937 33.4687 12.0923C33.4661 11.5411 33.3257 10.9674 33.1373 10.444C32.2191 7.89618 29.8963 6.51884 26.809 6.64772C23.4557 6.78717 21.048 9.25039 21.046 12.5563C21.0427 18.6889 21.0447 24.8208 21.0474 30.9534C21.0474 31.1993 21.0781 31.4458 21.0988 31.7558C22.4574 31.3771 23.7097 30.9759 24.9887 30.691C25.7218 30.5278 25.9042 30.1868 25.8801 29.4882C25.8273 27.9093 25.8634 26.3277 25.8634 24.7197H28.7108V29.8253C30.3534 29.5318 31.9004 29.2555 33.4527 28.9786V28.978ZM74.6073 11.703C74.8866 11.6892 75.1245 11.6687 75.3624 11.668C76.5739 11.6647 77.7861 11.635 78.9957 11.6799C79.5951 11.7024 79.7514 11.4948 79.7287 10.9344C79.6886 9.93509 79.6933 8.93249 79.7274 7.93319C79.7448 7.41966 79.577 7.2617 79.0518 7.26567C76.1008 7.28814 73.1498 7.29078 70.1989 7.26435C69.6462 7.25906 69.5406 7.46328 69.5413 7.94905C69.5527 14.8232 69.554 21.6967 69.5386 28.5708C69.5373 29.0513 69.6903 29.2463 70.1614 29.3613C73.2735 30.1174 76.3788 30.9039 79.4868 31.6751C79.6225 31.7089 79.7702 31.6956 79.9766 31.7075C79.9766 30.2416 79.9927 28.8306 79.9532 27.4215C79.9492 27.2721 79.6352 27.0428 79.4334 27.0025C77.9913 26.713 76.5392 26.4724 75.0964 26.1876C74.904 26.1499 74.5953 25.9556 74.5926 25.8274C74.5572 24.3562 74.5699 22.8837 74.5699 21.3213H79.1701V16.7841H74.6073V11.7037V11.703ZM60.1792 22.3034C61.2243 22.3034 62.1686 22.3054 63.1121 22.3034C65.6849 22.2961 67.4383 20.5831 67.447 18.059C67.4544 15.884 67.453 13.7089 67.447 11.5338C67.4397 9.00255 65.6942 7.28417 63.1241 7.27823C60.7679 7.27294 58.411 7.3007 56.0554 7.26236C55.3952 7.25179 55.2602 7.47518 55.2622 8.08123C55.2829 14.3236 55.2743 20.5665 55.2763 26.8095C55.2763 27.0421 55.299 27.2741 55.313 27.5411C56.735 27.6264 58.0969 27.6793 59.4521 27.8015C60.0562 27.8564 60.2052 27.6674 60.1919 27.0937C60.1551 25.5326 60.1792 23.9696 60.1792 22.3041V22.3034Z" fill="black"/>
<path d="M86.6582 18.883V11.3677C87.5209 11.3677 88.3515 11.3367 89.1788 11.3776C89.7943 11.408 89.9526 11.8819 89.96 12.3974C89.9747 13.3961 89.966 14.3947 89.966 15.394C89.966 16.1759 89.98 16.9577 89.9607 17.7389C89.94 18.5611 89.6613 18.8506 88.8514 18.8777C88.1163 18.9021 87.3799 18.883 86.6582 18.883Z" fill="black"/>
<path d="M25.8289 20.1083C25.8289 17.6596 25.8089 15.2948 25.8383 12.9301C25.851 11.8997 26.4517 11.3314 27.3612 11.3604C28.1798 11.3862 28.6823 11.9876 28.685 12.9757C28.691 15.168 28.6877 17.3595 28.685 19.5518C28.685 19.7223 28.6663 19.8922 28.6529 20.1083H25.8283H25.8289Z" fill="black"/>
<path d="M59.9551 11.3999C60.7556 11.3999 61.5208 11.3715 62.2826 11.4092C62.8766 11.4383 63.1847 11.7912 63.1827 12.3966C63.178 14.0039 63.1794 15.6119 63.1827 17.2193C63.184 17.8194 62.882 18.1842 62.2873 18.2159C61.5248 18.2562 60.7583 18.2258 59.9557 18.2258V11.3999H59.9551Z" fill="black"/>
</g>
<defs>
<clipPath id="clip0_1116_212">
<rect width="101" height="50" fill="white" transform="translate(0 0.636719)"/>
</clipPath>
</defs>
</svg>

<svg width="101" height="51" viewBox="0 0 101 51" fill="none" xmlns="http://www.w3.org/2000/svg"><g clip-path="url(#clip0_1116_212)" fill="#000"><path d="M101 .637v50c-.171-.09-.36-.157-.511-.272-4.3-3.289-8.96-5.994-13.867-8.288-11.939-5.58-24.489-8.422-37.724-8.217-4.721.074-9.396.55-14.022 1.47C22.3 37.834 10.77 42.718.383 50.19c-.1.071-.213.126-.382.224V.666h.824c33.173 0 66.346 0 99.518-.002.22 0 .438-.017.657-.027zm-18.964 6.64v24.686c0 .32-.06.637.365.803 1.37.533 2.726 1.1 4.09 1.647.088.035.201.005.388.005V23.596c1.796.156 2.87 1.314 2.883 3.108.022 2.805 0 5.612.02 8.417 0 .248.09.635.261.72 1.43.712 2.89 1.368 4.343 2.037.023.01.072-.035.156-.078v-.687c0-3.328-.03-6.656.012-9.983.025-2.016-.329-3.848-2.087-5.21 1.564-1.013 1.932-2.463 1.874-4.158-.071-2.107-.015-4.219-.017-6.329C94.32 9 92.61 7.297 90.136 7.28c-1.63-.012-3.26-.003-4.888-.003h-3.211zM36.09 28.634c1.5-.191 2.89-.402 4.287-.528.53-.048.653-.23.65-.718-.02-2.589-.01-5.178-.008-7.768 0-.175.025-.35.05-.704l3.317 6.585 3.233-6.415.124.047v.713c0 2.329.015 4.657-.01 6.984-.007.544.17.725.716.703a77.08 77.08 0 013.63-.063c.458.003.563-.19.55-.589-.02-.63-.005-1.262-.005-1.893V8.15c0-.582-.303-.872-.908-.873-1.212 0-2.424.027-3.634-.012-.517-.018-.73.183-.891.635-.656 1.843-1.343 3.675-2.025 5.51-.236.637-.488 1.269-.774 2.009-.113-.289-.18-.449-.239-.611-.822-2.268-1.668-4.528-2.449-6.81-.2-.587-.482-.758-1.084-.735a45.724 45.724 0 01-3.7-.001c-.662-.028-.85.151-.847.825.027 6.57.016 13.141.016 19.712v.836zm-17.53-4.516c-1.444 0-2.807.025-4.167-.013-.555-.016-.656.199-.65.683.022 1.85.018 3.699.004 5.548-.007.939-.568 1.487-1.467 1.482-.766-.003-1.346-.598-1.347-1.47-.01-5.83-.01-11.662 0-17.492.002-1.004.58-1.62 1.426-1.616.852.006 1.389.628 1.392 1.633.004 1.632.018 3.263-.01 4.895-.008.498.168.638.649.627a80.366 80.366 0 013.568 0c.486.012.652-.137.645-.63a267.71 267.71 0 01-.01-5.287c.009-1.745-.597-3.232-1.898-4.42-1.45-1.324-3.211-1.586-5.101-1.457-3.096.213-5.412 2.595-5.417 5.658-.012 6.114-.002 12.228-.004 18.341 0 1.902.81 3.417 2.327 4.532 2.059 1.513 4.289 1.515 6.554.5 2.258-1.012 3.453-2.77 3.5-5.225.038-2.062.007-4.126.007-6.29h-.001zm14.892 4.86c.018-.169.038-.274.038-.38 0-5.502.005-11.004-.022-16.506-.003-.55-.143-1.125-.332-1.648-.918-2.548-3.24-3.925-6.328-3.796-3.353.14-5.761 2.602-5.763 5.908-.003 6.133-.001 12.265.001 18.397 0 .246.031.493.052.803 1.358-.379 2.61-.78 3.89-1.065.733-.163.915-.504.891-1.203-.053-1.579-.017-3.16-.017-4.768h2.848v5.105l4.742-.846v-.001zm41.154-17.275c.28-.014.517-.034.755-.035 1.212-.003 2.424-.033 3.634.012.6.022.755-.185.733-.746a40.555 40.555 0 01-.002-3c.018-.514-.15-.672-.675-.668-2.951.022-5.902.025-8.853-.002-.553-.005-.658.2-.658.685.012 6.874.013 13.748-.002 20.622-.002.48.151.675.622.79 3.112.756 6.218 1.543 9.326 2.314.136.034.283.02.49.032 0-1.465.016-2.876-.024-4.285-.004-.15-.318-.38-.52-.42-1.442-.289-2.894-.53-4.337-.814-.192-.038-.5-.232-.503-.36-.036-1.472-.023-2.944-.023-4.507h4.6v-4.537h-4.563v-5.081zm-14.428 10.6c1.045 0 1.99.002 2.933 0 2.573-.007 4.326-1.72 4.335-4.244.007-2.175.006-4.35 0-6.525-.007-2.531-1.753-4.25-4.323-4.256-2.356-.005-4.713.023-7.069-.016-.66-.01-.795.213-.793.82.02 6.242.012 12.485.014 18.727 0 .233.023.465.037.732 1.422.085 2.784.138 4.14.26.603.055.752-.134.739-.707-.037-1.561-.013-3.124-.013-4.79z"/><path d="M86.658 18.883v-7.515c.863 0 1.694-.031 2.52.01.616.03.775.504.782 1.02.015.998.006 1.997.006 2.996 0 .782.014 1.564-.005 2.345-.021.822-.3 1.112-1.11 1.139-.735.024-1.471.005-2.193.005zm-60.829 1.225c0-2.448-.02-4.813.01-7.178.012-1.03.613-1.599 1.522-1.57.819.026 1.321.628 1.324 1.616.006 2.192.003 4.383 0 6.576 0 .17-.019.34-.032.556h-2.825zM59.955 11.4c.8 0 1.566-.029 2.328.01.594.028.902.381.9.987a969.103 969.103 0 000 4.822c.001.6-.301.965-.896.997-.762.04-1.529.01-2.331.01V11.4z"/></g><defs><clipPath id="clip0_1116_212"><path fill="#fff" transform="translate(0 .637)" d="M0 0h101v50H0z"/></clipPath></defs></svg>
